icons/layout-panel-off.svg

<svg xmlns="http://www.w3.org/2000/svg" viewBox="0 0 24 24"><g fill="#81c784"><path d="M2.828 1 21.92 20.092l-1.414 1.414L1.414 2.414z"/><path d="M22 6v10.879L18.121 13H20V6h-8.879l-2-2H20a2 2 0 0 1 2 2m-2 14H4a2 2 0 0 1-2-2V6a2 2 0 0 1 2-2h.879l2 2H4v7h9.879l6.859 6.859A2 2 0 0 1 20 20"/></g></svg>

<svg viewBox="0 0 24 24" width="24px" height="24px" xmlns="http://www.w3.org/2000/svg">
    <g fill="#81C784">
        <rect x="2.7" width="27" height="2"
              transform="matrix(0.707106, 0.707107, -0.707107, 0.707106, 0.919241, -0.909189)"></rect>
        <path d="M 22 6 L 22 16.879 L 18.121 13 L 20 13 L 20 6 L 11.121 6 L 9.121 4 L 20 4 C 21.105 4 22 4.895 22 6 Z M 20 20 L 4 20 C 2.896 20 2 19.104 2 18 L 2 6 C 2 4.895 2.896 4 4 4 L 4.879 4 L 6.879 6 L 4 6 L 4 13 L 13.879 13 L 20.738 19.859 C 20.51 19.95 20.261 20 20 20 Z"></path>
    </g>
</svg>
